X:139
T:B139-  Farinel's ground
Q:1/4=120
L:1/4
M:3/4
K:Dm
A/2|dd3/2e/2|^ccc|dd3/2d/2|eef/2e/2|\
ff3/2g/2|eef/2e/2|dd3/2e/2|^cc3/2c/2|\
dd3/2e/2|^ccc|d3/2f/2 (e/2d/2)|eee/2e/2|\
ff3/2g/2|eef/2e/2|(f/2d/2)d3/2^c/2|dd2|]
